www/coins/abt.svg

<svg xmlns="http://www.w3.org/2000/svg" width="32" height="32" viewBox="0 0 32 32">
  <path fill="#766054" fill-rule="evenodd" d="M16,32 C7.163444,32 0,24.836556 0,16 C0,7.163444 7.163444,0 16,0 C24.836556,0 32,7.163444 32,16 C32,24.836556 24.836556,32 16,32 Z M6.5,10.4865526 L6.5,21.5134474 L16,27 L25.5,21.5134474 L25.5,10.4865526 L16,5 L6.5,10.4865526 Z M7.41242938,20.4565736 L7.41242938,11.5436406 L13.1553745,14.866585 L11.2218968,18.2523651 L7.41242938,20.4565736 Z M7.86864475,21.2484889 L11.5328544,19.1283284 L15.5706215,21.4406714 L15.5706215,25.6966257 L7.86864475,21.2484889 Z M24.5875706,11.5746961 L24.5875706,20.4255181 L20.8276899,18.2500011 L18.8960993,14.8678571 L24.5875706,11.5746961 Z M24.1584018,10.7671314 L18.4428463,14.0742277 L16.4830508,10.6426979 L16.4830508,6.33437176 L24.1584018,10.7671314 Z M18.110619,15.3223464 L19.2637444,17.3450815 L16.9392655,16.0001071 L18.110619,15.3223464 Z M17.6579819,14.5283607 L16.4830508,15.2081914 L16.4830508,12.4673757 L17.6579819,14.5283607 Z M12.794088,17.3426744 L13.9452616,15.3236242 L15.1144068,16.0001071 L12.794088,17.3426744 Z M12.4476445,18.5990187 L15.5706215,16.7920227 L15.5706215,20.3874809 L12.4476445,18.5990187 Z M7.86845949,10.7516181 L15.5706215,6.30337429 L15.5706215,10.6371619 L13.6085941,14.0729363 L7.86845949,10.7516181 Z M24.1582165,21.2329756 L16.4830508,25.6656282 L16.4830508,21.4700146 L20.5220989,19.1290696 L24.1582165,21.2329756 Z M19.6100494,18.6013457 L16.4830508,20.4136865 L16.4830508,16.7920227 L19.6100494,18.6013457 Z M14.3979428,14.529664 L15.5706215,12.472896 L15.5706215,15.2081914 L14.3979428,14.529664 Z"/>
</svg>

<svg xmlns="http://www.w3.org/2000/svg" width="32" height="32" viewBox="0 0 32 32"><path fill="#766054" fill-rule="evenodd" d="M16 32C7.163 32 0 24.837 0 16S7.163 0 16 0s16 7.163 16 16-7.163 16-16 16zM6.5 10.487v11.026L16 27l9.5-5.487V10.487L16 5l-9.5 5.487zm.912 9.97v-8.913l5.743 3.323-1.933 3.385-3.81 2.205zm.457.791l3.664-2.12 4.038 2.313v4.256l-7.702-4.449zm16.719-9.673v8.85l-3.76-2.175-1.932-3.382 5.692-3.293zm-.43-.808l-5.715 3.307-1.96-3.431V6.334l7.675 4.433zm-6.047 4.555l1.153 2.023L16.939 16l1.172-.678zm-.453-.794l-1.175.68v-2.74l1.175 2.06zm-4.864 2.815l1.151-2.02 1.17.677-2.32 1.343zm-.346 1.256l3.123-1.807v3.595L12.448 18.6zm-4.58-7.847l7.703-4.449v4.334l-1.962 3.436-5.74-3.321zm16.29 10.481l-7.675 4.433V21.47l4.04-2.34 3.635 2.103zm-4.548-2.632l-3.127 1.813v-3.622l3.127 1.81zm-5.212-4.071l1.173-2.057v2.735l-1.173-.678z"/></svg>
